X:1
T:Barnard, 87.87 D refrain
T:Barnard, 87.87 D refrain
T:Charlotte Alington Pye Barnard, 1864
T:Public Domain Courtesy of the Cyber Hymnal™
C:Charlotte Alington Pye Barnard, 1864
Z:Public Domain
Z:Courtesy of the Cyber Hymnal™
%%score ( 1 2 ) ( 3 4 )
L:1/8
Q:1/4=180
M:3/4
K:F
V:1 treble 
V:2 treble 
V:3 bass 
V:4 bass 
V:1
 [FA]2 [FA]2 [FA]2 | [EB]2 [EA]2 [EG]2 | [Fc]6 | [Ec]6 | C2 [CF]2 [CG]2 | [FA]2 [FB]2 [FA]2 | %6
 [FG-]6 | [EG]6 | [FA]2 [FA]2 [FA]2 | [EB]2 [EA]2 [EG]2 | [Fc]6 | [_Gc]6 | [Gc]2 [GB]2 D2 | %13
 [CE]2 [EA]3 [EG] | [CF]6- | [CF]6!fine! | [FA]2 [Af]2 [Ge]2 | [Fd]2 [Ac]2 [GB]2 | %18
 ([FA]4 [Ac][GB]) | [FA]6 | [EG]2 E2 [DF]2 | [EG]2 [DF]2 [_DE]2 | (D4- FE | D6) | %24
 [FA]2 [Af]2 [Ge]2 | [Bd]2 [Ac]2 [GB]2 | [FA]4 ([Ac][GB]) | [FA]6 | [EG]2 [_E_G]2 [=E=G]2 | %29
 [G=B]2 [Ge]3 [Fd] | [Ec]4 [F=B]2 | [GB]6!D.C.! |] %32
V:2
 x6 | x6 | x6 | x6 | C2 x4 | x6 | x6 | x6 | x6 | x6 | x6 | x6 | x4 D2 | x6 | x6 | x6 | x6 | x6 | %18
 x6 | x6 | x2 E2 x2 | x6 | x6 | x6 | x6 | x6 | x6 | x6 | x6 | x6 | x6 | x6 |] %32
V:3
 [F,C]2 [F,C]2 [F,C]2 | [G,C]2 C2 [B,C]2 | [A,C]6 | [G,B,]6 | [F,A,]2 [F,A,]2 [F,B,]2 | %5
 [F,C]2 [F,D]2 [F,C]2 | ([G,=B,]6 | [C,C]6) | [F,C]2 [F,C]2 [F,C]2 | [G,C]2 C2 [B,C]2 | [A,C]6 | %11
 [A,_E]6 | [B,D]2 [B,D]2 [B,,B,]2 | [C,B,]2 [C,C]3 [C,B,] | [F,A,]6- | [F,A,]6 | %16
 [D,D]2 [D,D]2 [D,A,]2 | [D,A,]2 [D,D]2 [D,D]2 | [D,D]6 | [D,D]6 | [A,_D]2 [A,D]2 [A,=D]2 | %21
 [A,,_D]2 [A,,A,]2 [A,,G,]2 | F,4- A,G, | [D,F,]6 | [D,D]2 [D,D]2 [D,D]2 | [G,D]2 [G,D]2 [G,D]2 | %26
 [D,D]6 | [D,D]6 | [G,C]2 [G,C]2 [G,C]2 | [G,D]2 [G,C]3 [G,=B,] | [C,C-]4 [D,G,]2 | [E,C]6 |] %32
V:4
 x6 | x2 C2 x2 | x6 | x6 | x6 | x6 | x6 | x6 | x6 | x2 C2 x2 | x6 | x6 | x6 | x6 | x6 | x6 | x6 | %17
 x6 | x6 | x6 | x6 | x6 | D,6- | x6 | x6 | x6 | x6 | x6 | x6 | x6 | x6 | x6 |] %32

